X: 1
T: The Yellow Wattle
R: jig
M: 6/8
L: 1/8
K: Dmix
|:dcA AGE|ABA ABc|dcA ABc|dcA AGE|
dcA AGE|ABA AGE|EDD cde|dcA GED:|
|:DED c3|ded c3|DED cde|dcA GED|
DED c3|ded d2c|ABA ABc|dcA GED:|


Tune 1237	Setting 24441

